public/images/poses-sm/SeatedTwist.svg

<svg width="800" height="900" fill="none" xmlns="http://www.w3.org/2000/svg"><path d="M545.278 625.791c-45.989 3.284-88.694 52.54-151.11 59.109-62.416 6.567-134.685-3.286-157.68-6.569-22.995-3.284-26.28 3.283-19.709 22.987 6.57 19.703 32.849 26.27 75.554 26.27 42.705 0 72.27-3.283 101.834-9.85" fill="#fff"/><path d="M545.278 625.791c-45.989 3.284-88.694 52.54-151.11 59.109-62.416 6.567-134.685-3.286-157.68-6.569-22.995-3.284-26.28 3.283-19.709 22.987 6.57 19.703 32.849 26.27 75.554 26.27 42.705 0 72.27-3.283 101.834-9.85" stroke="#000" stroke-width="5" stroke-miterlimit="10"/><path d="M545.278 625.791c-45.989 3.284-88.694 52.54-151.11 59.109-62.416 6.567-134.685-3.286-157.68-6.569-22.995-3.284-26.28 3.283-19.709 22.987 6.57 19.703 32.849 26.27 75.554 26.27 42.705 0 72.27-3.283 101.834-9.85" stroke="#000" stroke-width="5" stroke-miterlimit="10"/><path d="M404.825 682.695s3.921 20.959-3.673 35.828Z" fill="#fff"/><path d="M404.825 682.695s3.921 20.959-3.673 35.828" stroke="#000" stroke-width="5" stroke-miterlimit="10"/><path d="M404.825 682.695s3.921 20.959-3.673 35.828M334.109 726.298c2.429-6.54 5.714-32.808 2.429-39.377" stroke="#000" stroke-width="5" stroke-miterlimit="10"/><path d="M627.697 619.224c-29.565-22.988-137.969 0-137.969 0-19.711-16.419-21.79-57.085-21.79-57.085l-70.19-11.875-71.063 11.875s-1.207 40.666-20.917 57.085c0 0-108.405-22.988-137.969 0-29.565 22.985 9.855 59.106 42.705 68.958 32.85 9.85 137.968 29.553 187.244 29.553 49.276 0 154.394-19.704 187.245-29.553 32.849-9.852 72.27-45.973 42.704-68.958Z" fill="#fff" stroke="#000" stroke-width="5" stroke-miterlimit="10"/><path d="M627.697 619.224c-29.565-22.988-137.969 0-137.969 0-19.711-16.419-21.79-57.085-21.79-57.085l-70.19-11.875-71.063 11.875s-1.207 40.666-20.917 57.085c0 0-108.405-22.988-137.969 0-29.565 22.985 9.855 59.106 42.705 68.958 32.85 9.85 137.968 29.553 187.244 29.553 49.276 0 154.394-19.704 187.245-29.553 32.849-9.852 72.27-45.973 42.704-68.958Z" stroke="#000" stroke-width="5" stroke-miterlimit="10"/><path d="M246.639 625.791c45.99 3.284 88.695 52.54 151.109 59.109 62.416 6.567 134.686-3.286 157.68-6.569 22.994-3.284 26.28 3.283 19.709 22.987-6.57 19.703-32.849 26.27-75.554 26.27-42.706 0-71.609-7.962-101.835-9.85-52.559-3.285-151.243-16.061-187.244-29.553" fill="#fff"/><path d="M246.639 625.791c45.99 3.284 88.695 52.54 151.109 59.109 62.416 6.567 134.686-3.286 157.68-6.569 22.994-3.284 26.28 3.283 19.709 22.987-6.57 19.703-32.849 26.27-75.554 26.27-42.706 0-71.609-7.962-101.835-9.85-52.559-3.285-151.243-16.061-187.244-29.553" stroke="#000" stroke-width="5" stroke-miterlimit="10"/><path d="M246.639 625.791c45.99 3.284 88.695 52.54 151.109 59.109 62.416 6.567 134.686-3.286 157.68-6.569 22.994-3.284 26.28 3.283 19.709 22.987-6.57 19.703-32.849 26.27-75.554 26.27-42.706 0-71.609-7.962-101.835-9.85-52.559-3.285-151.243-16.061-187.244-29.553" stroke="#000" stroke-width="5" stroke-miterlimit="10"/><path d="M545.278 625.791c-45.989 3.284-88.694 52.54-151.11 59.109" stroke="#000" stroke-width="5" stroke-miterlimit="10"/><path d="M467.937 562.139s-29.411 13.847-70.342 13.847c-40.927 0-70.912-13.847-70.912-13.847s-.469-36.141 3.285-114.931c.937-19.693 2.679-35.371 4.693-47.719 3.506-21.555 14.096-41.277 29.818-56.446.144-.141.293-.282.44-.423 22.972-22.22 6.547-87.894 6.547-87.894s16.428 13.135 36.134 13.135c19.707 0 9.855 22.986 9.855 22.986s-2.095 8.485.77 22.188c3.124 14.923 5.863 34.94 16.861 45.51 10.637 10.23 32.187 36.103 36.135 45.973 6.57 16.419-3.286 52.54-6.571 65.675-3.284 13.135 3.287 91.946 3.287 91.946Z" fill="#fff" stroke="#000" stroke-width="5" stroke-miterlimit="10"/><path d="M467.937 562.139s-29.411 13.847-70.342 13.847c-40.927 0-70.912-13.847-70.912-13.847s-.469-36.141 3.285-114.931c.937-19.693 2.679-35.371 4.693-47.719 3.506-21.555 14.096-41.277 29.818-56.446.144-.141.293-.282.44-.423 22.972-22.22 6.547-87.894 6.547-87.894s16.428 13.135 36.134 13.135c19.707 0 9.855 22.986 9.855 22.986s-2.095 8.485.77 22.188c3.124 14.923 5.863 34.94 16.861 45.51 10.637 10.23 32.187 36.103 36.135 45.973 6.57 16.419-3.286 52.54-6.571 65.675-3.284 13.135 3.287 91.946 3.287 91.946Z" stroke="#000" stroke-width="5" stroke-miterlimit="10"/><path d="M372.22 260.957c-6.631-11.295-1.37-22.606-3.786-36.802-3.836-22.557 23.347-45.269 48.906-44.206 33.744 1.4 37.258 121.775 17.763 124.157-11.55 1.414-32.779-8.004-48.408-26.956-5.024-6.089-14.475-16.193-14.475-16.193Z" fill="#fff" stroke="#000" stroke-width="5" stroke-miterlimit="10"/><path d="M372.22 260.957c-6.631-11.295-1.37-22.606-3.786-36.802-3.836-22.557 23.347-45.269 48.906-44.206 33.744 1.4 37.258 121.775 17.763 124.157-11.55 1.414-32.779-8.004-48.408-26.956-5.024-6.089-14.475-16.193-14.475-16.193Z" stroke="#000" stroke-width="5" stroke-miterlimit="10"/><path d="M431.669 193.776c-.118 21.132-15.089 59.588-41.718 53.052-29.932-7.343-17.505 10.3-15.087 15.88 2.424 5.58 17.077 15.976 14.125 17.612-2.949 1.639-41.559-14.777-46.06-45.177-4.498-30.4 6.882-44.964 22.549-54.58 15.665-9.617 41.511-11.338 57.416-1.84 15.907 9.5 8.775 15.053 8.775 15.053Z" fill="#100200" stroke="#000" stroke-width="5" stroke-miterlimit="10"/><path d="M411.255 686.062c4.122 17.277-4.005 32.456-4.005 32.456" stroke="#000" stroke-width="5" stroke-miterlimit="10"/><path d="M379.242 427.504s95.602 113.19 101.835 121.499c19.709 26.272 101.834 52.54 108.404 55.824 6.57 3.285 22.995 36.122 42.617 50.517 19.628 14.396 6.657-14.396 1.998-29.553-4.658-15.159-100.46-86.639-116.885-103.059-14.03-14.025-71.221-123.917-87.585-155.641-4.578-8.873-11.744-16.29-20.82-20.449" fill="#fff"/><path d="M379.242 427.504s95.602 113.19 101.835 121.499c19.709 26.272 101.834 52.54 108.404 55.824 6.57 3.285 22.995 36.122 42.617 50.517 19.628 14.396 6.657-14.396 1.998-29.553-4.658-15.159-100.46-86.639-116.885-103.059-14.03-14.025-71.221-123.917-87.585-155.641-4.578-8.873-11.744-16.29-20.82-20.449" stroke="#000" stroke-width="5" stroke-miterlimit="10"/><path d="M379.242 427.504s95.602 113.19 101.835 121.499c19.709 26.272 101.834 52.54 108.404 55.824 6.57 3.285 22.995 36.122 42.617 50.517 19.628 14.396 6.657-14.396 1.998-29.553-4.658-15.159-100.46-86.639-116.885-103.059-14.03-14.025-71.221-123.917-87.585-155.641-4.578-8.873-11.744-16.29-20.82-20.449" stroke="#000" stroke-width="5" stroke-miterlimit="10"/></svg>

<svg width="800" height="900" viewBox="0 0 800 900" fill="none" xmlns="http://www.w3.org/2000/svg">
<path d="M545.278 625.791C499.289 629.075 456.584 678.331 394.168 684.9C331.752 691.467 259.483 681.614 236.488 678.331C213.493 675.047 210.208 681.614 216.779 701.318C223.349 721.021 249.628 727.588 292.333 727.588C335.038 727.588 364.603 724.305 394.167 717.738" fill="white"/>
<path d="M545.278 625.791C499.289 629.075 456.584 678.331 394.168 684.9C331.752 691.467 259.483 681.614 236.488 678.331C213.493 675.047 210.208 681.614 216.779 701.318C223.349 721.021 249.628 727.588 292.333 727.588C335.038 727.588 364.603 724.305 394.167 717.738" stroke="black" stroke-width="5" stroke-miterlimit="10"/>
<path d="M545.278 625.791C499.289 629.075 456.584 678.331 394.168 684.9C331.752 691.467 259.483 681.614 236.488 678.331C213.493 675.047 210.208 681.614 216.779 701.318C223.349 721.021 249.628 727.588 292.333 727.588C335.038 727.588 364.603 724.305 394.167 717.738" stroke="black" stroke-width="5" stroke-miterlimit="10"/>
<path d="M404.825 682.695C404.825 682.695 408.746 703.654 401.152 718.523Z" fill="white"/>
<path d="M404.825 682.695C404.825 682.695 408.746 703.654 401.152 718.523" stroke="black" stroke-width="5" stroke-miterlimit="10"/>
<path d="M404.825 682.695C404.825 682.695 408.746 703.654 401.152 718.523" stroke="black" stroke-width="5" stroke-miterlimit="10"/>
<path d="M334.109 726.298C336.538 719.758 339.823 693.49 336.538 686.921" stroke="black" stroke-width="5" stroke-miterlimit="10"/>
<path d="M627.697 619.224C598.132 596.236 489.728 619.224 489.728 619.224C470.017 602.805 467.938 562.139 467.938 562.139L397.748 550.264L326.685 562.139C326.685 562.139 325.478 602.805 305.768 619.224C305.768 619.224 197.363 596.236 167.799 619.224C138.234 642.209 177.654 678.33 210.504 688.182C243.354 698.032 348.472 717.735 397.748 717.735C447.024 717.735 552.142 698.031 584.993 688.182C617.842 678.33 657.263 642.209 627.697 619.224Z" fill="white" stroke="black" stroke-width="5" stroke-miterlimit="10"/>
<path d="M627.697 619.224C598.132 596.236 489.728 619.224 489.728 619.224C470.017 602.805 467.938 562.139 467.938 562.139L397.748 550.264L326.685 562.139C326.685 562.139 325.478 602.805 305.768 619.224C305.768 619.224 197.363 596.236 167.799 619.224C138.234 642.209 177.654 678.33 210.504 688.182C243.354 698.032 348.472 717.735 397.748 717.735C447.024 717.735 552.142 698.031 584.993 688.182C617.842 678.33 657.263 642.209 627.697 619.224Z" stroke="black" stroke-width="5" stroke-miterlimit="10"/>
<path d="M246.639 625.791C292.629 629.075 335.334 678.331 397.748 684.9C460.164 691.467 532.434 681.614 555.428 678.331C578.422 675.047 581.708 681.614 575.137 701.318C568.567 721.021 542.288 727.588 499.583 727.588C456.877 727.588 427.974 719.626 397.748 717.738C345.189 714.453 246.505 701.677 210.504 688.185" fill="white"/>
<path d="M246.639 625.791C292.629 629.075 335.334 678.331 397.748 684.9C460.164 691.467 532.434 681.614 555.428 678.331C578.422 675.047 581.708 681.614 575.137 701.318C568.567 721.021 542.288 727.588 499.583 727.588C456.877 727.588 427.974 719.626 397.748 717.738C345.189 714.453 246.505 701.677 210.504 688.185" stroke="black" stroke-width="5" stroke-miterlimit="10"/>
<path d="M246.639 625.791C292.629 629.075 335.334 678.331 397.748 684.9C460.164 691.467 532.434 681.614 555.428 678.331C578.422 675.047 581.708 681.614 575.137 701.318C568.567 721.021 542.288 727.588 499.583 727.588C456.877 727.588 427.974 719.626 397.748 717.738C345.189 714.453 246.505 701.677 210.504 688.185" stroke="black" stroke-width="5" stroke-miterlimit="10"/>
<path d="M545.278 625.791C499.289 629.075 456.584 678.331 394.168 684.9" stroke="black" stroke-width="5" stroke-miterlimit="10"/>
<path d="M467.937 562.139C467.937 562.139 438.526 575.986 397.595 575.986C356.668 575.986 326.683 562.139 326.683 562.139C326.683 562.139 326.214 525.998 329.968 447.208C330.905 427.515 332.647 411.837 334.661 399.489C338.167 377.934 348.757 358.212 364.479 343.043C364.623 342.902 364.772 342.761 364.919 342.62C387.891 320.4 371.466 254.726 371.466 254.726C371.466 254.726 387.894 267.861 407.6 267.861C427.307 267.861 417.455 290.847 417.455 290.847C417.455 290.847 415.36 299.332 418.225 313.035C421.349 327.958 424.088 347.975 435.086 358.545C445.723 368.775 467.273 394.648 471.221 404.518C477.791 420.937 467.935 457.058 464.65 470.193C461.366 483.328 467.937 562.139 467.937 562.139Z" fill="white" stroke="black" stroke-width="5" stroke-miterlimit="10"/>
<path d="M467.937 562.139C467.937 562.139 438.526 575.986 397.595 575.986C356.668 575.986 326.683 562.139 326.683 562.139C326.683 562.139 326.214 525.998 329.968 447.208C330.905 427.515 332.647 411.837 334.661 399.489C338.167 377.934 348.757 358.212 364.479 343.043C364.623 342.902 364.772 342.761 364.919 342.62C387.891 320.4 371.466 254.726 371.466 254.726C371.466 254.726 387.894 267.861 407.6 267.861C427.307 267.861 417.455 290.847 417.455 290.847C417.455 290.847 415.36 299.332 418.225 313.035C421.349 327.958 424.088 347.975 435.086 358.545C445.723 368.775 467.273 394.648 471.221 404.518C477.791 420.937 467.935 457.058 464.65 470.193C461.366 483.328 467.937 562.139 467.937 562.139Z" stroke="black" stroke-width="5" stroke-miterlimit="10"/>
<path d="M372.22 260.957C365.589 249.662 370.85 238.351 368.434 224.155C364.598 201.598 391.781 178.886 417.34 179.949C451.084 181.349 454.598 301.724 435.103 304.106C423.553 305.52 402.324 296.102 386.695 277.15C381.671 271.061 372.22 260.957 372.22 260.957Z" fill="white" stroke="black" stroke-width="5" stroke-miterlimit="10"/>
<path d="M372.22 260.957C365.589 249.662 370.85 238.351 368.434 224.155C364.598 201.598 391.781 178.886 417.34 179.949C451.084 181.349 454.598 301.724 435.103 304.106C423.553 305.52 402.324 296.102 386.695 277.15C381.671 271.061 372.22 260.957 372.22 260.957Z" stroke="black" stroke-width="5" stroke-miterlimit="10"/>
<path d="M431.669 193.776C431.551 214.908 416.58 253.364 389.951 246.828C360.019 239.485 372.446 257.128 374.864 262.708C377.288 268.288 391.941 278.684 388.989 280.32C386.04 281.959 347.43 265.543 342.929 235.143C338.431 204.743 349.811 190.179 365.478 180.563C381.143 170.946 406.989 169.225 422.894 178.723C438.801 188.223 431.669 193.776 431.669 193.776Z" fill="#100200" stroke="black" stroke-width="5" stroke-miterlimit="10"/>
<path d="M411.255 686.062C415.377 703.339 407.25 718.518 407.25 718.518" stroke="black" stroke-width="5" stroke-miterlimit="10"/>
<path d="M379.242 427.504C379.242 427.504 474.844 540.694 481.077 549.003C500.786 575.275 582.911 601.543 589.481 604.827C596.051 608.112 612.476 640.949 632.098 655.344C651.726 669.74 638.755 640.948 634.096 625.791C629.438 610.632 533.636 539.152 517.211 522.732C503.181 508.707 445.99 398.815 429.626 367.091C425.048 358.218 417.882 350.801 408.806 346.642" fill="white"/>
<path d="M379.242 427.504C379.242 427.504 474.844 540.694 481.077 549.003C500.786 575.275 582.911 601.543 589.481 604.827C596.051 608.112 612.476 640.949 632.098 655.344C651.726 669.74 638.755 640.948 634.096 625.791C629.438 610.632 533.636 539.152 517.211 522.732C503.181 508.707 445.99 398.815 429.626 367.091C425.048 358.218 417.882 350.801 408.806 346.642" stroke="black" stroke-width="5" stroke-miterlimit="10"/>
<path d="M379.242 427.504C379.242 427.504 474.844 540.694 481.077 549.003C500.786 575.275 582.911 601.543 589.481 604.827C596.051 608.112 612.476 640.949 632.098 655.344C651.726 669.74 638.755 640.948 634.096 625.791C629.438 610.632 533.636 539.152 517.211 522.732C503.181 508.707 445.99 398.815 429.626 367.091C425.048 358.218 417.882 350.801 408.806 346.642" stroke="black" stroke-width="5" stroke-miterlimit="10"/>
</svg>
